static/images/onboarding/remix-illustration-2.svg

<svg width="360" height="360" viewBox="0 0 360 360" fill="none" xmlns="http://www.w3.org/2000/svg">
<path opacity="0.34" fill-rule="evenodd" clip-rule="evenodd" d="M299.637 176.265C295.374 181.295 291.453 186.325 287.872 191.185C284.802 195.363 281.989 199.455 279.431 203.463C238.933 266.128 252.489 308.076 203.38 316.09H203.295C202.442 316.26 201.589 316.346 200.737 316.431C196.218 317.028 191.273 317.369 185.731 317.454C182.577 317.454 179.422 317.369 176.267 317.198C101.495 311.912 48.2934 234.923 41.4727 173.281C40.1938 161.43 39.8528 151.199 40.4496 142.332C41.2169 129.969 43.7747 120.25 47.7819 112.406C56.3931 95.6098 71.7397 87.6807 91.0083 81.2862C98.5963 78.7284 106.866 76.4264 115.478 73.8687C117.439 73.2719 119.4 72.675 121.361 72.0782C122.469 71.7372 123.577 71.3962 124.686 71.0551C126.306 70.5436 127.925 70.032 129.545 69.5205C129.972 69.3499 130.483 69.2647 130.91 69.0942C141.908 65.5133 153.503 61.0798 165.184 55.1969C203.721 35.6726 252.574 39.5092 286.081 58.6925C286.081 58.6925 286.166 58.6925 286.166 58.7778C286.508 58.9483 286.849 59.1188 287.104 59.3746C295.715 64.4049 303.304 70.5436 309.357 77.5348C330.331 101.578 333.315 136.449 299.637 176.265Z" fill="#4C97FF"/>
<path opacity="0.15" fill-rule="evenodd" clip-rule="evenodd" d="M90.4967 223.584C72.0807 193.402 70.6313 153.16 86.8306 121.273C103.627 86.9984 131.847 71.8223 143.187 66.8773C150.008 63.7227 157.169 61.2502 164.928 59.3745L172.516 57.7546C178.058 56.6462 183.685 60.0565 184.879 65.5984C186.072 71.1402 182.577 76.5968 176.95 77.7905L169.532 79.4104C163.393 80.8598 157.51 82.906 151.798 85.549C144.295 88.7889 119.655 101.237 105.417 130.395C94.5892 151.625 91.3493 185.387 108.401 213.267C123.833 240.124 155.379 256.579 185.305 253.851C213.611 251.804 239.615 232.962 248.652 208.066C257.86 184.62 251.722 160.577 241.576 147.021C229.384 130.31 214.122 125.195 208.154 123.745C207.302 123.489 186.328 117.18 167.912 126.473C159.983 130.31 149.667 138.836 144.21 151.71C138.242 165.011 139.777 182.062 147.876 193.487C155.976 205.679 171.237 212.585 184.452 210.198C197.582 208.152 206.364 198.432 208.495 189.821C210.968 180.613 207.216 172.854 204.232 170.041C199.202 165.096 194.854 165.011 194.683 165.011C192.637 164.925 191.614 165.096 191.017 165.181C188.715 166.034 185.39 167.909 184.367 169.87C184.197 170.211 183.77 171.064 184.623 173.281C186.669 178.567 183.941 184.45 178.569 186.496C173.198 188.457 167.23 185.814 165.184 180.528C161.859 171.746 163.734 164.925 165.866 160.662C171.408 149.664 184.367 145.742 185.902 145.316C186.584 145.145 187.266 144.975 187.948 144.889C189.397 144.634 191.87 144.293 195.28 144.463C203.124 144.548 211.991 148.641 218.812 155.376C226.826 162.964 233.135 178.226 228.702 194.851C224.354 212.585 207.558 227.25 188.033 230.319C166.974 234.07 143.357 223.669 130.824 204.912C118.803 187.945 116.501 163.22 125.282 143.525C134.917 120.932 153.418 110.615 158.875 108.057C184.964 95.0128 212.844 103.624 213.952 103.965C221.455 105.755 242.258 112.747 258.457 134.829C270.905 151.454 281.051 182.574 268.177 215.143C256.496 247.2 223.075 271.584 187.095 274.228C184.282 274.483 181.383 274.654 178.569 274.654C143.613 274.654 108.231 254.533 90.4967 223.584Z" fill="#3373CC"/>
<path fill-rule="evenodd" clip-rule="evenodd" d="M154.356 95.0982L138.498 112.491C137.389 113.685 135.514 113.77 134.32 112.662L111.3 91.7731C110.703 91.2615 109.936 91.0057 109.168 91.0057L103.371 91.2615C102.603 91.2615 101.836 91.0057 101.239 90.4942L89.9851 80.2631C89.3883 79.7515 89.0473 78.9842 89.0473 78.2169L88.7915 72.4192C88.7915 71.6519 88.3652 70.8846 87.8537 70.373L82.2266 65.2575C81.0329 64.1491 80.9477 62.2734 82.056 61.0798L97.9142 43.7722C99.0226 42.5785 100.898 42.4933 102.092 43.6016L107.719 48.7172C108.316 49.2287 108.657 49.9961 108.657 50.7634L108.913 56.6463C108.998 57.4136 109.339 58.181 109.851 58.6925L121.105 68.9236C121.702 69.4352 122.469 69.6909 123.236 69.6909L129.119 69.4352C129.886 69.4352 130.654 69.6909 131.251 70.2025L154.185 91.091C155.294 92.0288 155.379 93.9045 154.356 95.0982Z" fill="#FFBF00"/>
<path fill-rule="evenodd" clip-rule="evenodd" d="M99.7047 42.8343C99.7047 42.8343 126.902 44.1984 131.165 70.0319L121.019 71.3108L106.184 59.8861L97.9143 43.7721L99.7047 42.8343Z" fill="#FFBF00"/>
<path opacity="0.1" fill-rule="evenodd" clip-rule="evenodd" d="M253.512 99.8729C253.512 99.8729 254.109 102.857 246.521 109.848C238.933 116.839 232.709 122.04 232.709 122.04C232.709 122.04 227.849 125.28 229.469 129.032C229.469 129.032 230.066 125.195 233.732 122.978C237.483 120.847 253.768 103.624 253.853 101.834C253.853 100.129 253.512 99.8729 253.512 99.8729Z" fill="black"/>
<path opacity="0.34" d="M45.7357 235.179C55.1994 255.812 70.6313 269.027 62.8727 272.608C55.1142 276.189 28.3428 266.81 18.879 246.092C9.41526 225.46 20.84 201.246 28.6838 197.75C36.4424 194.169 36.2719 214.461 45.7357 235.179Z" fill="#4C97FF"/>
<path opacity="0.34" d="M342.693 147.021C338.089 163.22 328.199 174.645 320.696 172.513C313.194 170.382 324.448 159.384 329.052 143.184C333.656 126.985 329.819 111.724 337.407 113.855C344.995 115.987 347.297 130.822 342.693 147.021Z" fill="#4C97FF"/>
<path fill-rule="evenodd" clip-rule="evenodd" d="M258.372 127.156C258.969 128.69 258.201 130.396 256.667 130.907L201.419 151.881C200.652 152.137 200.14 152.734 199.799 153.416L197.412 158.702C197.071 159.384 196.474 159.981 195.792 160.236L181.639 165.608C180.871 165.863 180.104 165.863 179.422 165.522L174.136 163.135C173.454 162.794 172.601 162.794 171.919 163.05L164.757 165.778C163.223 166.375 161.518 165.608 161.006 164.073L152.651 142.076C152.054 140.541 152.821 138.836 154.356 138.325L161.432 135.596C162.2 135.341 162.967 135.341 163.649 135.682L169.02 138.069C169.702 138.41 170.555 138.41 171.237 138.154L185.39 132.783C186.157 132.527 186.669 131.93 187.01 131.248L189.397 125.877C189.738 125.195 190.335 124.598 191.017 124.342L246.265 103.368C247.8 102.772 249.505 103.539 250.017 105.074L258.372 127.156Z" fill="#FFAB1A"/>
<path fill-rule="evenodd" clip-rule="evenodd" d="M309.357 77.3644C301.598 85.5492 295.886 91.6026 292.305 96.8887C292.049 97.4855 291.708 97.9971 291.282 98.5939C288.213 102.686 291.111 114.537 279.857 123.831C275.424 127.497 271.843 123.063 270.99 123.66C265.619 127.156 263.232 120.335 262.635 120.506C257.349 122.125 255.303 118.63 254.45 117.095C254.194 116.669 254.024 116.328 253.853 116.413C250.784 118.204 248.567 119.909 246.436 121.699C243.622 124.001 241.15 126.388 237.398 129.202C233.647 132.015 230.407 131.248 229.384 129.117C229.384 129.031 229.299 129.031 229.299 128.946C229.299 128.861 229.213 128.776 229.213 128.69C229.128 128.52 229.128 128.435 229.128 128.264C229.043 127.753 229.043 127.241 229.128 126.644C229.213 126.047 229.469 125.451 229.895 124.854C229.981 124.768 229.981 124.683 230.066 124.598C230.236 124.342 230.407 124.172 230.577 124.001L230.663 123.916C230.919 123.66 231.174 123.319 231.515 123.063L232.709 122.04C232.709 122.04 232.879 121.87 233.306 121.529C233.476 121.443 233.647 121.273 233.817 121.102C233.903 121.017 233.988 120.932 234.073 120.847C235.608 119.482 237.569 117.777 239.53 115.987C241.32 114.367 243.111 112.747 244.731 111.298C245.072 111.042 245.413 110.701 245.754 110.36C246.862 109.337 247.885 108.399 248.652 107.631C249.249 107.035 249.676 106.608 249.931 106.267C250.017 106.097 250.187 106.011 250.272 105.841C250.613 105.5 250.869 105.074 251.21 104.647C251.637 104.05 251.978 103.539 252.233 103.113C252.319 103.027 252.404 102.942 252.404 102.772C252.915 101.919 253.256 101.152 253.427 100.384C253.512 99.8728 253.512 99.7023 253.512 99.7023C253.342 97.9971 251.295 97.1445 245.413 98.5086C236.46 100.555 231.856 97.4855 231.856 94.5015C231.856 94.5015 231.856 94.2457 231.942 93.9046C232.112 92.7963 233.05 91.6879 234.585 90.9206C234.67 90.9206 234.755 90.8353 234.755 90.8353C235.011 90.7501 235.352 90.5795 235.693 90.4943C236.205 90.3238 236.716 90.2385 237.228 90.068C240.468 89.3006 244.645 88.7891 249.079 87.6807C249.249 87.5955 249.42 87.5955 249.676 87.5102C251.125 87.1692 252.574 86.7429 254.024 86.2313C254.109 86.2313 254.109 86.2313 254.194 86.1461C255.729 85.6345 257.178 85.0377 258.628 84.2704L258.884 84.0998C259.821 83.5883 261.271 82.821 262.891 81.9684H262.976C265.96 80.3484 269.626 78.6433 271.758 78.3875C271.843 78.3875 271.843 78.3875 271.843 78.3875L273.122 76.6823C277.3 70.9699 281.903 64.5755 286.252 58.5221C286.252 58.5221 286.337 58.5221 286.337 58.6074L286.422 58.5221L287.36 59.1189C295.801 64.3197 303.304 70.4584 309.357 77.3644Z" fill="#B68554"/>
<path opacity="0.1" fill-rule="evenodd" clip-rule="evenodd" d="M287.19 59.2894L273.378 80.3484C273.378 80.3484 261.441 83.503 253.768 88.107C246.095 92.7963 234.926 89.9827 231.942 94.5867C231.942 94.5867 231.942 94.3309 232.027 93.9899C232.112 93.7341 232.197 93.3931 232.368 93.1373C232.368 93.1373 232.879 91.9437 234.67 91.0911C234.755 91.0911 234.84 91.0058 234.84 91.0058C235.523 90.7501 236.29 90.409 237.313 90.2385C237.398 90.2385 237.569 90.1532 237.654 90.1532C239.871 89.8122 244.389 89.1301 249.079 87.8513C249.249 87.766 249.42 87.766 249.676 87.6807C251.125 87.2544 252.574 86.8281 254.024 86.4018C254.109 86.4018 254.109 86.4018 254.194 86.3166C257.008 85.3787 259.651 84.2704 261.697 82.9062C262.123 82.6504 262.464 82.3947 262.891 82.1389H262.976C268.262 78.9843 271.161 78.558 271.758 78.558C271.843 78.558 271.843 78.558 271.843 78.558L273.122 76.8528L286.337 58.6926L286.422 58.6074L287.19 59.2894Z" fill="black"/>
<path fill-rule="evenodd" clip-rule="evenodd" d="M203.38 175.156V198.688C203.38 200.308 202.101 201.587 200.481 201.587H169.361C168.594 201.587 167.827 201.928 167.315 202.439L163.223 206.532C162.711 207.043 161.944 207.384 161.177 207.384H146C145.233 207.384 144.466 207.043 143.954 206.532L139.862 202.439C139.35 201.928 138.583 201.587 137.816 201.587H130.142C128.522 201.587 127.243 200.308 127.243 198.688V175.156C127.243 173.537 128.522 172.258 130.142 172.258H137.73C138.498 172.258 139.265 172.599 139.776 173.11L143.954 177.288C144.551 177.8 145.233 178.141 146 178.141H161.177C161.944 178.141 162.711 177.8 163.223 177.288L167.4 173.11C167.997 172.599 168.679 172.258 169.447 172.258H200.481C202.101 172.258 203.38 173.537 203.38 175.156Z" fill="#CF63CF"/>
<path d="M82.7381 157.508C84.4433 168.251 87.5979 165.693 89.7294 187.519C90.4967 195.363 98.8521 195.278 97.7437 179.846C97.1469 171.235 94.5892 169.189 100.813 177.8C105.417 184.279 112.238 193.487 117.353 197.324C123.663 202.013 129.801 196.898 125.368 192.379C118.291 185.303 108.742 174.73 110.618 173.11C112.664 171.405 122.554 187.775 130.142 196.557C135.599 202.951 142.42 197.58 137.645 190.589C131.336 181.381 121.361 170.894 122.725 169.444C124.089 167.995 135.769 176.521 141.482 183.256C146.171 188.713 152.395 182.659 148.047 177.714C141.652 170.212 126.732 161.345 127.84 159.981C129.375 158.19 141.311 161.174 146.341 163.817C152.651 167.228 157.169 160.407 151.883 158.787C142.42 155.973 121.787 141.394 116.842 136.961C104.82 126.388 79.4983 137.472 82.7381 157.508Z" fill="#4C2F19"/>
<path d="M103.541 134.914L97.7437 154.183L96.3796 158.787C92.7987 156.655 88.0242 154.694 82.4823 152.819C80.7772 152.222 78.9867 151.625 77.111 151.113C65.8568 147.703 52.4711 144.634 40.4496 142.246C41.2169 129.884 43.7747 120.164 47.7819 112.32L84.1023 127.07L99.9605 133.55L103.371 134.914H103.541Z" fill="#4C2F19"/>
<path d="M147.109 184.791C147.109 184.791 145.659 185.217 143.869 184.194C143.187 183.853 142.505 183.256 141.737 182.403C139.009 179.249 124.259 165.437 122.384 169.359C122.384 169.359 125.453 167.824 139.35 181.21C140.8 182.659 141.652 183.938 142.675 184.535C145.574 186.07 147.109 184.791 147.109 184.791Z" fill="black" fill-opacity="0.2"/>
<path d="M110.447 173.025C110.447 173.025 110.533 169.615 124.686 189.821C124.686 189.821 130.739 200.308 135.514 199.285C135.514 199.285 132.529 198.773 130.824 196.13C129.204 193.487 112.408 169.529 110.447 173.025Z" fill="black" fill-opacity="0.2"/>
<path d="M152.31 163.817C152.31 163.817 149.411 165.948 144.039 162.623C138.668 159.298 127.158 158.616 127.67 159.725C127.67 159.725 131.506 156.57 144.21 161.6C144.21 161.686 148.558 164.073 152.31 163.817Z" fill="black" fill-opacity="0.2"/>
</svg>

<svg width="360" height="360" fill="none" xmlns="http://www.w3.org/2000/svg"><path opacity=".34" fill-rule="evenodd" clip-rule="evenodd" d="M299.637 176.265a279.632 279.632 0 0 0-11.765 14.92 227.225 227.225 0 0 0-8.441 12.278c-40.498 62.665-26.942 104.613-76.051 112.627h-.085c-.853.17-1.706.256-2.558.341-4.519.597-9.464.938-15.006 1.023-3.154 0-6.309-.085-9.464-.256-74.772-5.286-127.974-82.275-134.794-143.917-1.28-11.851-1.62-22.082-1.023-30.949.767-12.363 3.325-22.082 7.332-29.926 8.611-16.796 23.958-24.725 43.226-31.12 7.588-2.558 15.858-4.86 24.47-7.417l5.883-1.79 3.325-1.024 4.859-1.535c.427-.17.938-.255 1.365-.426 10.998-3.58 22.593-8.014 34.274-13.897 38.537-19.524 87.39-15.688 120.897 3.495 0 0 .085 0 .085.086.342.17.683.34.938.597 8.611 5.03 16.2 11.169 22.253 18.16 20.974 24.043 23.958 58.914-9.72 98.73Z" fill="#4C97FF"/><path opacity=".15" fill-rule="evenodd" clip-rule="evenodd" d="M90.497 223.584C72.08 193.402 70.63 153.16 86.83 121.273c16.796-34.275 45.016-49.45 56.356-54.396 6.821-3.154 13.982-5.627 21.741-7.502l7.588-1.62c5.542-1.109 11.169 2.301 12.363 7.843a10.234 10.234 0 0 1-7.929 12.192l-7.418 1.62a92.847 92.847 0 0 0-17.734 6.139c-7.503 3.24-32.143 15.688-46.381 44.846-10.828 21.23-14.068 54.992 2.984 82.872 15.432 26.857 46.978 43.312 76.904 40.584 28.306-2.047 54.31-20.889 63.347-45.785 9.208-23.446 3.07-47.489-7.076-61.045-12.192-16.711-27.454-21.826-33.422-23.276-.852-.256-21.826-6.565-40.242 2.728-7.929 3.837-18.245 12.363-23.702 25.237-5.968 13.301-4.433 30.352 3.666 41.777 8.1 12.192 23.361 19.098 36.576 16.711 13.13-2.046 21.912-11.766 24.043-20.377 2.473-9.208-1.279-16.967-4.263-19.78-5.03-4.945-9.378-5.03-9.549-5.03-2.046-.086-3.069.085-3.666.17-2.302.853-5.627 2.728-6.65 4.689-.17.341-.597 1.194.256 3.411 2.046 5.286-.682 11.169-6.054 13.215-5.371 1.961-11.339-.682-13.385-5.968-3.325-8.782-1.45-15.603.682-19.866 5.542-10.998 18.501-14.92 20.036-15.346.682-.171 1.364-.341 2.046-.427 1.449-.255 3.922-.596 7.332-.426 7.844.085 16.711 4.178 23.532 10.913 8.014 7.588 14.323 22.85 9.89 39.475-4.348 17.734-21.144 32.399-40.669 35.468-21.059 3.751-44.676-6.65-57.209-25.407-12.021-16.967-14.323-41.692-5.542-61.387 9.635-22.593 28.136-32.91 33.593-35.468 26.089-13.044 53.969-4.433 55.077-4.092 7.503 1.79 28.306 8.782 44.505 30.864 12.448 16.625 22.594 47.745 9.72 80.314-11.681 32.057-45.102 56.441-81.082 59.085-2.813.255-5.712.426-8.526.426-34.956 0-70.338-20.121-88.072-51.07Z" fill="#3373CC"/><path fill-rule="evenodd" clip-rule="evenodd" d="m154.356 95.098-15.858 17.393c-1.109 1.194-2.984 1.279-4.178.171L111.3 91.773a3.275 3.275 0 0 0-2.132-.767l-5.797.255a3.275 3.275 0 0 1-2.132-.767l-11.254-10.23a2.724 2.724 0 0 1-.938-2.047l-.255-5.798c0-.767-.427-1.534-.938-2.046l-5.627-5.116c-1.194-1.108-1.28-2.984-.171-4.177l15.858-17.308c1.109-1.194 2.984-1.279 4.178-.17l5.627 5.115c.597.512.938 1.28.938 2.046l.256 5.883c.085.768.426 1.535.938 2.047l11.254 10.23a3.274 3.274 0 0 0 2.131.768l5.883-.256c.767 0 1.535.256 2.132.767l22.934 20.889c1.109.938 1.194 2.814.171 4.007Z" fill="#FFBF00"/><path fill-rule="evenodd" clip-rule="evenodd" d="M99.705 42.834s27.197 1.364 31.46 27.198l-10.146 1.279-14.835-11.425-8.27-16.114 1.79-.938Z" fill="#FFBF00"/><path opacity=".1" fill-rule="evenodd" clip-rule="evenodd" d="M253.512 99.873s.597 2.984-6.991 9.975c-7.588 6.991-13.812 12.192-13.812 12.192s-4.86 3.24-3.24 6.992c0 0 .597-3.837 4.263-6.054 3.751-2.131 20.036-19.354 20.121-21.144 0-1.705-.341-1.961-.341-1.961Z" fill="#000"/><path opacity=".34" d="M45.736 235.179c9.463 20.633 24.895 33.848 17.137 37.429-7.759 3.581-34.53-5.798-43.994-26.516-9.464-20.632 1.961-44.846 9.805-48.342 7.758-3.581 7.588 16.711 17.052 37.429ZM342.693 147.021c-4.604 16.199-14.494 27.624-21.997 25.492-7.502-2.131 3.752-13.129 8.356-29.329 4.604-16.199.767-31.46 8.355-29.329 7.588 2.132 9.89 16.967 5.286 33.166Z" fill="#4C97FF"/><path fill-rule="evenodd" clip-rule="evenodd" d="M258.372 127.156c.597 1.534-.171 3.24-1.705 3.751l-55.248 20.974c-.767.256-1.279.853-1.62 1.535l-2.387 5.286c-.341.682-.938 1.279-1.62 1.534l-14.153 5.372c-.768.255-1.535.255-2.217-.086l-5.286-2.387c-.682-.341-1.535-.341-2.217-.085l-7.162 2.728c-1.534.597-3.239-.17-3.751-1.705l-8.355-21.997c-.597-1.535.17-3.24 1.705-3.751l7.076-2.729c.768-.255 1.535-.255 2.217.086l5.371 2.387c.682.341 1.535.341 2.217.085l14.153-5.371c.767-.256 1.279-.853 1.62-1.535l2.387-5.371c.341-.682.938-1.279 1.62-1.535l55.248-20.974c1.535-.596 3.24.171 3.752 1.706l8.355 22.082Z" fill="#FFAB1A"/><path fill-rule="evenodd" clip-rule="evenodd" d="M309.357 77.364c-7.759 8.185-13.471 14.239-17.052 19.525-.256.597-.597 1.108-1.023 1.705-3.069 4.092-.171 15.943-11.425 25.237-4.433 3.666-8.014-.768-8.867-.171-5.371 3.496-7.758-3.325-8.355-3.154-5.286 1.619-7.332-1.876-8.185-3.411-.256-.426-.426-.767-.597-.682-3.069 1.791-5.286 3.496-7.417 5.286-2.814 2.302-5.286 4.689-9.038 7.503-3.751 2.813-6.991 2.046-8.014-.085 0-.086-.085-.086-.085-.171 0-.085-.086-.17-.086-.256-.085-.17-.085-.255-.085-.426a5.17 5.17 0 0 1 0-1.62c.085-.597.341-1.193.767-1.79.086-.086.086-.171.171-.256.17-.256.341-.426.511-.597l.086-.085c.256-.256.511-.597.852-.853l1.194-1.023s.17-.17.597-.511c.17-.086.341-.256.511-.427l.256-.255c1.535-1.365 3.496-3.07 5.457-4.86 1.79-1.62 3.581-3.24 5.201-4.689.341-.256.682-.597 1.023-.938 1.108-1.023 2.131-1.961 2.898-2.729.597-.596 1.024-1.023 1.279-1.364.086-.17.256-.256.341-.426.341-.341.597-.767.938-1.194a23.29 23.29 0 0 0 1.023-1.534c.086-.086.171-.171.171-.341.511-.853.852-1.62 1.023-2.388.085-.511.085-.682.085-.682-.17-1.705-2.217-2.558-8.099-1.193-8.953 2.046-13.557-1.023-13.557-4.008 0 0 0-.255.086-.596.17-1.109 1.108-2.217 2.643-2.984.085 0 .17-.086.17-.086.256-.085.597-.255.938-.34.512-.171 1.023-.257 1.535-.427 3.24-.767 7.417-1.279 11.851-2.387.17-.085.341-.085.597-.17a41.934 41.934 0 0 0 4.348-1.28c.085 0 .085 0 .17-.085a28.814 28.814 0 0 0 4.434-1.876l.256-.17c.937-.512 2.387-1.279 4.007-2.132h.085c2.984-1.62 6.65-3.325 8.782-3.58h.085l1.279-1.706c4.178-5.712 8.781-12.106 13.13-18.16 0 0 .085 0 .085.085l.085-.085.938.597c8.441 5.2 15.944 11.34 21.997 18.245Z" fill="#B68554"/><path opacity=".1" fill-rule="evenodd" clip-rule="evenodd" d="m287.19 59.29-13.812 21.058s-11.937 3.155-19.61 7.759c-7.673 4.69-18.842 1.876-21.826 6.48 0 0 0-.256.085-.597.085-.256.17-.597.341-.853 0 0 .511-1.193 2.302-2.046.085 0 .17-.085.17-.085.683-.256 1.45-.597 2.473-.767.085 0 .256-.086.341-.086 2.217-.34 6.735-1.023 11.425-2.302.17-.085.341-.085.597-.17l4.348-1.28c.085 0 .085 0 .17-.084 2.814-.938 5.457-2.047 7.503-3.41.426-.257.767-.512 1.194-.768h.085c5.286-3.155 8.185-3.581 8.782-3.581h.085l1.279-1.705 13.215-18.16.085-.086.768.682Z" fill="#000"/><path fill-rule="evenodd" clip-rule="evenodd" d="M203.38 175.156v23.532a2.875 2.875 0 0 1-2.899 2.899h-31.12a2.98 2.98 0 0 0-2.046.852l-4.092 4.093a2.98 2.98 0 0 1-2.046.852H146a2.98 2.98 0 0 1-2.046-.852l-4.092-4.093a2.98 2.98 0 0 0-2.046-.852h-7.674a2.875 2.875 0 0 1-2.899-2.899v-23.532a2.875 2.875 0 0 1 2.899-2.898h7.588c.768 0 1.535.341 2.046.852l4.178 4.178c.597.512 1.279.853 2.046.853h15.177c.767 0 1.534-.341 2.046-.853l4.177-4.178c.597-.511 1.279-.852 2.047-.852h31.034a2.875 2.875 0 0 1 2.899 2.898Z" fill="#CF63CF"/><path d="M82.738 157.508c1.705 10.743 4.86 8.185 6.991 30.011.768 7.844 9.123 7.759 8.015-7.673-.597-8.611-3.155-10.657 3.069-2.046 4.604 6.479 11.425 15.687 16.54 19.524 6.31 4.689 12.448-.426 8.015-4.945-7.077-7.076-16.626-17.649-14.75-19.269 2.046-1.705 11.936 14.665 19.524 23.447 5.457 6.394 12.278 1.023 7.503-5.968-6.309-9.208-16.284-19.695-14.92-21.145 1.364-1.449 13.044 7.077 18.757 13.812 4.689 5.457 10.913-.597 6.565-5.542-6.395-7.502-21.315-16.369-20.207-17.733 1.535-1.791 13.471 1.193 18.501 3.836 6.31 3.411 10.828-3.41 5.542-5.03-9.463-2.814-30.096-17.393-35.041-21.826-12.022-10.573-37.344.511-34.104 20.547Z" fill="#4C2F19"/><path d="m103.541 134.914-5.797 19.269-1.364 4.604c-3.581-2.132-8.356-4.093-13.898-5.968-1.705-.597-3.495-1.194-5.371-1.706-11.254-3.41-24.64-6.479-36.661-8.867.767-12.362 3.325-22.082 7.332-29.926l36.32 14.75 15.858 6.48 3.411 1.364h.17Z" fill="#4C2F19"/><path d="M147.109 184.791s-1.45.426-3.24-.597c-.682-.341-1.364-.938-2.132-1.791-2.728-3.154-17.478-16.966-19.353-13.044 0 0 3.069-1.535 16.966 11.851 1.45 1.449 2.302 2.728 3.325 3.325 2.899 1.535 4.434.256 4.434.256ZM110.447 173.025s.086-3.41 14.239 16.796c0 0 6.053 10.487 10.828 9.464 0 0-2.985-.512-4.69-3.155-1.62-2.643-18.416-26.601-20.377-23.105ZM152.31 163.817s-2.899 2.131-8.271-1.194c-5.371-3.325-16.881-4.007-16.369-2.898 0 0 3.836-3.155 16.54 1.875 0 .086 4.348 2.473 8.1 2.217Z" fill="#000" fill-opacity=".2"/></svg>
